X:1
T:Title
%%score { ( 1 3 ) | ( 2 4 ) }
L:1/8
M:6/8
K:Eb
V:1 treble nm="Grand Piano"
V:3 treble 
V:2 bass 
V:4 bass 
V:1
 z3 z2[Q:1/4=90] E | z FG A2 G | [DF]3 E2 E | z FG A2 c | B3- B2 [EGB] | .[DAB]2 [Ad] e2 G | %6
 G3 F2 G | ABc [DB]2 [DA] | [EG]3- [EG]2 [GB] | [Ge]2 [Ge] dc[Ad] | [Ee]3- [Ee]2 [GB] | %11
 [_Gc]2 [Gc] ed[Gc] | [GB]3- [GB]2 [FA] | z3 .A3 |[M:7/8] [EB]2 [EB] [Ge]3 [G,E] | %15
[M:3/4] [B,EG]2 [CEA][B,EG] [B,F][G,B,E] |[M:5/8] [A,B,F]3 [E,G,B,E]2 |[M:1/8] B |[M:3/4] B6 | %19
 [EGB]3 [B,EG]2 B | e6 | [EG]3 [DF]2 [DF] | z2 z A z2 |[M:7/8] [EB]2 [EB] [Ge]3 [G,E] | %24
[M:3/4] [B,EG]2 [CEA][B,EG] [B,F][G,B,E] |[M:13/8] [A,B,F]3[K:bass] .[E,G,B,E]3 z z z z z z2 |] %26
V:2
 z3 z2 [E,G,B,] | G,A,[E,B,E] [E,CE]2 [E,B,E] | [B,,A,]3 [E,G,B,]2 [E,G,B,] | %3
 G,A,[E,B,E] [E,CE]2 [E,A,E] | [E,G,E]3- [E,G,E]2 E, | z[K:treble] c[F,B,] [G,B,G]2 [G,_DE] | %6
 [A,CE]3[K:bass] [A,CE]2 [G,B,E] | [F,A,D]2 [F,A,D] [B,,F,]2 [B,,B,] | [E,B,]3- [E,B,]2 [E,B,] | %9
 [E,B,]2 [E,B,] [F,B,]2 [F,B,] | [G,B,]3- [G,B,]2 [E,B,] | [E,=A,]2 [E,A,] [E,A,]2 [E,A,] | %12
 [E,B,]3- [E,B,]2 [B,,B,] | [E,B,]2 [_D,B,] [C,A,][B,,G,][A,,A,] | %14
[M:7/8] [E,G,]2 [E,G,] [E,B,]3 E, |[M:3/4] E,2 .A,,2 A,B,, |[M:5/8] B,,3 E,,2 | %17
[M:1/8][K:treble] G |[M:3/4] G6[K:bass] | E,3 E,2[K:treble] G | G6[K:bass] | %21
 [B,,B,]3 [B,,B,]2 [B,,B,] | [E,B,]2 [_D,B,][C,A,] [B,,G,][A,,A,] | %23
[M:7/8] [E,G,]2 [E,G,] [E,B,]3 E, |[M:3/4] E,2 .A,,2 A,B,, |[M:13/8] B,,3 .E,,3 z z z z z z2 |] %26
V:3
 x6 | .E3 z3 | x6 | .E3 z3 | x6 | x6 | x6 | x6 | x6 | z3 .A3 | x6 | z3 ._G3 | x6 | %13
 [EG]2 [EG] E-[EB][Ec] |[M:7/8] x7 |[M:3/4] x6 |[M:5/8] x5 |[M:1/8] x |[M:3/4] z2 E E2 [EAc] | x6 | %20
 z2 B, B,2 G | x6 | [EG]2 [EG]E- [EB][Ec] |[M:7/8] x7 |[M:3/4] x6 |[M:13/8] x3[K:bass] x10 |] %26
V:4
 x6 | .E,3 z3 | x6 | .E,3 z3 | x6 | .F,3[K:treble] z3 | x3[K:bass] x3 | x6 | x6 | x6 | x6 | x6 | %12
 x6 | x6 |[M:7/8] x7 |[M:3/4] z2 z .B,,3 |[M:5/8] x5 |[M:1/8][K:treble] x | %18
[M:3/4] z2[K:bass] E, E,2 E, | x5[K:treble] x | z2[K:bass] E, E,2 [E,B,E] | x6 | x6 |[M:7/8] x7 | %24
[M:3/4] z2 z .B,,3 |[M:13/8] x13 |] %26

